X:236
T:Jeanette & Jeannot Quadrilles No.3. Le4.236
M:6/8
L:1/8
Q:3/8=90
N:* Mss shows two 1/8 note rests
B:L.Leadley MS#4 c1850
Z:Village Music Project 2016 Steve Mansfield
K:C
ef | !segno! gab c'ba | ag2 z ef | gag fgf | e3 z ef |
gab c'ba | a g2- g2c' | bc'b aba | g3 g z ||
g | (gfd) (Bgb) | c'ge ceg | gfd Bgb | c'ge ceg |
^fed (c'ba) | bc'b aba | gag ^fga | .g.b.a .g.e.f ||
!coda! .g.a.b .c'.b.a | ag2 z ef | gag fgf | e3 z ef |
gab c'ba | ag2 z ef | gag fed | czz czz H ||
c'ba ^g^fg | ba2 aab | c'ba c'ba | b3 e' z e |
c'ba ^g^fg | ac'e' f'>e'd' | {c'd'}e'>d'c' d'>c'b | "*" a2 z g>fe/f/ !D.C.! |]

